!!!COM: Beethoven
!!!OTL: 13 Variationen uber "Es war einmal ein alter Mann" aus "Das rote Kappchen" von K. Ditters von Dittersdorf
!!!Variation: Variation 6 c
**function	**harm	**kern	**kern
*	*	*clefF4	*clefG2
*	*	*k[]	*k[]
*M2/4	*M2/4	*M2/4	*M2/4
*a:	*a:	*a:	*a:
=235	=235	=235	=235
4D	F#:min	(8AAL	(8cL
.	.	8EJ	8eJ
4D	B#:dim/b5	8AAL	4d#
.	.	8F#J	.
=236	=236	=236	=236
4.D	C#:min/b3	8GGL	8f#L
.	.	8GJ	8eJ
.	.	8EL	8g)
8D	C#:min/b3	8GGJ)	8r
=237	=237	=237	=237
4D	F#:min	(8AAL	(8cL
.	.	8EJ	8eJ
4D	B#:dim/b5	8AAL	4d#
.	.	8F#J	.
=238	=238	=238	=238
4.D	C#:min/b3	8GGL	8f#L
.	.	8GJ	8eJ
.	.	8EL	8b)
8D	C#:min/b3	8GGJ)	8r
=239	=239	=239	=239
4D	F#:min	(8AAL	(8cL
.	.	8EJ	8eJ
4D	B#:dim/b5	8AAL	4d#
.	.	8F#J	.
=240	=240	=240	=240
4.D	C#:min/b3	8GGL	8f#L
.	.	8GJ	8eJ
.	.	8EL	8g)
8D	C#:min/b3	8GGJ)	8r
=241	=241	=241	=241
4D	F#:min	(8AAL	(8cL
.	.	8GJ	8eJ
4D	B#:dim7/b5	8AAL	4d#
.	.	8F#J	.
=242	=242	=242	=242
4D	C#:min	8AA#L	8eL
.	.	8GJ	8gJ
4D	G#:7	8BBL	4d#
.	.	8F#J 8A	.
=243	=243	=243	=243
4D	C#:min/5	8BBL	8eL
.	.	8EJ 8G	8bJ
4D	G#:7	8BBL	4d#
.	.	8F#J 8A	.
=244	=244	=244	=244
*	*	*	*^
2D	C#:min/5	2BB)	4r	(4e'
.	.	.	4E 4G	4b')
=245	=245	=245	=245	=245
2D	G#:7	2BB	4r	2d#
.	.	.	4F# 4A	.
*	*	*	*v	*v
=246	=246	=246	=246
2D	.	2r;	2r;
=247	=247	=247	=247
2D	C#:maj	(2E	(2e
*-	*-	*-	*-
!!!EMD: Edited in humdrumR 0.7.0.3 on 2024-01-19
